app/assets/images/heroicons/mini/arrow-up-right.svg

<svg width="20" height="20" viewBox="0 0 20 20" fill="none" xmlns="http://www.w3.org/2000/svg">
<path fill-rule="evenodd" clip-rule="evenodd" d="M5.21967 14.7803C5.51256 15.0732 5.98744 15.0732 6.28033 14.7803L13.5 7.56066V13.25C13.5 13.6642 13.8358 14 14.25 14C14.6642 14 15 13.6642 15 13.25V5.75C15 5.33579 14.6642 5 14.25 5H6.75C6.33579 5 6 5.33579 6 5.75C6 6.16421 6.33579 6.5 6.75 6.5H12.4393L5.21967 13.7197C4.92678 14.0126 4.92678 14.4874 5.21967 14.7803Z" fill="#0F172A"/>
</svg>

<svg xmlns="http://www.w3.org/2000/svg" viewBox="0 0 20 20" fill="currentColor" aria-hidden="true" data-slot="icon">
  <path fill-rule="evenodd" d="M5.22 14.78a.75.75 0 0 0 1.06 0l7.22-7.22v5.69a.75.75 0 0 0 1.5 0v-7.5a.75.75 0 0 0-.75-.75h-7.5a.75.75 0 0 0 0 1.5h5.69l-7.22 7.22a.75.75 0 0 0 0 1.06Z" clip-rule="evenodd"/>
</svg>
